X: 130
T:Pasucais d'uvieu
M:6/8
L:1/8
S:Llan de Cubel
Z:Rachel Marsh
K:D
faf | d2 f fef | g2 e ege | cBA ede | f2 d faf | d2 f fef | g2 e ege | c
BA efe |1 d3 :||2 F2 G ||
ABc dcB | A3 dcB | ABA GFG | B2 A AFG | ABc dcB | A3 dcB | ABA GFE |1 D3
DFG :||2 D3 ||
<end>
<start>
